images/svg/enter-fullscreen-w.svg

<?xml version="1.0" encoding="UTF-8"?>
<!DOCTYPE svg PUBLIC "-//W3C//DTD SVG 1.1//EN" "http://www.w3.org/Graphics/SVG/1.1/DTD/svg11.dtd">
<svg xmlns="http://www.w3.org/2000/svg" version="1.1" width="800px" height="800px" style="shape-rendering:geometricPrecision; text-rendering:geometricPrecision; image-rendering:optimizeQuality; fill-rule:evenodd; clip-rule:evenodd" xmlns:xlink="http://www.w3.org/1999/xlink">
<g><path style="opacity:0.98" fill="#ffffff" d="M 28.5,-0.5 C 122.5,-0.5 216.5,-0.5 310.5,-0.5C 310.5,23.5 310.5,47.5 310.5,71.5C 230.833,71.5 151.167,71.5 71.5,71.5C 71.5,151.167 71.5,230.833 71.5,310.5C 47.5,310.5 23.5,310.5 -0.5,310.5C -0.5,216.167 -0.5,121.833 -0.5,27.5C 3.93204,12.7345 13.5987,3.40114 28.5,-0.5 Z"/></g>
<g><path style="opacity:0.986" fill="#ffffff" d="M 488.5,-0.5 C 582.5,-0.5 676.5,-0.5 770.5,-0.5C 784.953,3.2841 794.62,12.2841 799.5,26.5C 799.5,121.167 799.5,215.833 799.5,310.5C 775.833,310.5 752.167,310.5 728.5,310.5C 728.5,230.833 728.5,151.167 728.5,71.5C 648.5,71.5 568.5,71.5 488.5,71.5C 488.5,47.5 488.5,23.5 488.5,-0.5 Z"/></g>
<g><path style="opacity:0.98" fill="#ffffff" d="M -0.5,488.5 C 23.4082,488.172 47.2415,488.506 71,489.5C 71.5,568.833 71.6667,648.166 71.5,727.5C 151.167,727.5 230.833,727.5 310.5,727.5C 310.5,751.5 310.5,775.5 310.5,799.5C 216.167,799.5 121.833,799.5 27.5,799.5C 13.1667,795.167 3.83333,785.833 -0.5,771.5C -0.5,677.167 -0.5,582.833 -0.5,488.5 Z"/></g>
<g><path style="opacity:0.987" fill="#ffffff" d="M 799.5,488.5 C 799.5,583.167 799.5,677.833 799.5,772.5C 794.774,786.292 785.441,795.292 771.5,799.5C 677.167,799.5 582.833,799.5 488.5,799.5C 488.5,775.5 488.5,751.5 488.5,727.5C 568.5,727.5 648.5,727.5 728.5,727.5C 728.5,647.833 728.5,568.167 728.5,488.5C 752.167,488.5 775.833,488.5 799.5,488.5 Z"/></g>
</svg>

<svg xmlns="http://www.w3.org/2000/svg" shape-rendering="geometricPrecision" text-rendering="geometricPrecision" image-rendering="optimizeQuality" fill-rule="evenodd" clip-rule="evenodd" viewBox="0 0 800 800"><path fill="#fff" d="M28.5-.5h282v72h-239v239h-72v-283a39 39 0 0 1 29-28m460 0h282a40 40 0 0 1 29 27v284h-71v-239h-240zm-489 489q35.9-.5 71.5 1 .8 119 .5 238h239v72h-283a40 40 0 0 1-28-28zm800 0v284a40 40 0 0 1-28 27h-283v-72h240v-239z"/></svg>
